!!!OTL: Der Kaempfer geistlich
!!!ARE: Europa, Mitteleuropa, Deutschland
!!!SCT: A0589
!!!YEM: Copyright 1995, estate of Helmut Schaffrath.
**kern
*ICvox
*Ivox
*M3/2
*k[b-e-]
*g:
{2g
=1
2g
4a
2b-
4cc
=2
2a
2g}
{2dd
=3
2b-
4dd
2cc
4b-
=4
1a}
{2g
=5
2g
4a
2b-
4cc
=6
2a
2g}
{2dd
=7
2b-
4dd
2cc
4b-
=8
1a}
{2dd
=9
2b-
4dd
2cc
4b-
=10
2a
2g}
{2b-
=11
4cc
4dd
4b-
4cc
2a
=12
1g}
==
!!!AGN: Romanze, Ballade, Lied, religioeses Lied
!! Offnes Bl. 1510.
!!!ONB: ESAC (Essen Associative Code) Database: ALTDEU
!!!AMT: simple triple
!!!AIN: vox
!!!EED: Helmut Schaffrath
!!!EEV: 1.0
*-
